svg/transfer_left.svg

<svg xmlns="http://www.w3.org/2000/svg" viewBox="0 0 24 24"><path d="M21 16h-2V8h2zm-4 0h-2V8h2zm-4 0h-2V8h2zM9 5v14l-7-7z"/></svg>

<?xml version="1.0" encoding="UTF-8"?><!DOCTYPE svg PUBLIC "-//W3C//DTD SVG 1.1//EN" "http://www.w3.org/Graphics/SVG/1.1/DTD/svg11.dtd"><svg xmlns="http://www.w3.org/2000/svg" xmlns:xlink="http://www.w3.org/1999/xlink" version="1.1" id="mdi-transfer-left" width="24" height="24" viewBox="0 0 24 24"><path d="M21,16H19V8H21V16M17,16H15V8H17V16M13,16H11V8H13V16M9,5V19L2,12L9,5Z" /></svg>
